X:39
T:Roland & Cynthia Taylor
C:Willy Taylor
Z:Phil Lucas/Noel Jackson 
L:1/8
R:twostep
K:D
A | F>GE  F>DD | d>ef edc | d2B AGF | G>EE E2A | F>GE F>DD | d>ef edc| d2B AGE | F>DD D2 :||
f | a>fa gfe | d>fe dBA | B2d AGF | G>EE E2f | a>ga gfe | dfe dBA | B2d cde | f>dd d2 |
  | a>fa gfe | d>fe dBA | B2d AGF | G>EE E2G | F>AA GAB | A>dd cde | d2B AGE : F>DD D2 ||
